X:1
T:A Town With An Ocean View
T:A Town With An Ocean View
T:Kiki's Delivery Service
T:Arr. LoisCovers
T:Joe Hisaishi 
C:Arr. LoisCovers
Z:Joe Hisaishi
%%score { ( 1 3 ) | 2 }
L:1/8
Q:1/4=80
M:4/4
K:G
V:1 treble nm="Piano" snm="Pno."
V:3 treble 
V:2 bass 
V:1
"_cresc." z!p! ([Bb][Aa][Gg] [Gg][Ff][Ee][Ff] | [Aa][Gg][Ff][Gg] [dd']3 [cc'] | %2
 [Bb]3 [Aa] [Aa]3 [Gg] | [Aa]4 !arpeggio!!fermata![B^dfb]4-) | [B^dfb]4 z3[Q:1/4=100]!mf! .B | %5
 !tenuto!g2 z .B !tenuto!f2 z .B | !tenuto!e2 .d.c !tenuto!d3 .G | (Ac).e.g (fd).B.A | B4 z3 .B | %9
 !tenuto!g2 z .B !tenuto!f2 z .B | !tenuto!e2 .d.c !tenuto!d3 .B | (Ac).e.g (ab).f.d | %12
 .e2 z2 z2 z .B | !tenuto!g2 z .B !tenuto!f2 z .B | !tenuto!e2 .d.c !tenuto!d3 .G | %15
 (Ac).e.g (fd).B.A | B4 z3 .B | !tenuto!g2 z .B !tenuto!f2 z .B | !tenuto!e2 .d.c !tenuto!d3 .B | %19
 ([CA][Ac]).[ce].[eg] ([fa][gb]).[Af].[Fd] | e2 z2 G/4A/4B/4c/4(5:4:5d/4e/4f/4g/4a/4 b/a/b/c'/ | %21
 [Bb]4 gfef | d2 [Aa]2 [Gg]2 [Ff]2 | [Gg]4 z fef | [Dd]2 F2 D3 B, | ^G,A,CE D3 C | ^A,B,DF AGFG | %27
 B3 z{ab} T^c'4 | B3 A/B/ E4 | F6 z .B | !tenuto!g2 z .B !tenuto!f2 z .B | %31
 !tenuto!e2 .d.c !tenuto!d3 .G | (Ac).e.g (fd).B.A | B4 z3 .B | !tenuto!g2 z .B !tenuto!f2 z .B | %35
 !tenuto!e2 .d.c !tenuto!d3 .B | ([CA][Ac]).[ce].[eg] ([fa][gb]).[Af].[Fd] | [Ge]2 z2 z2 z B, | %38
 z (e/^d/) e(c/B/) c(A/G/) A2 | z (d/c/) d(B/A/) B(G/F/) G2 | z (c/B/ c)(A/G/) A(F/E/) F2 | %41
 z B/c/ B/A/G/F/ E4 | z g/f/ gB c/d/c/B/ c2 | z f/e/ fA B/c/B/A/ B2 | z e/d/ eG A/B/A/G/ A2 | %45
 z B/^c/ ^dF G/A/G/F/ G2 | D/^C/B,/A,/ ^G,/F,/G/F/ E/D/C/B,/ A,2- | A,4 z A/B/ A/G/F/E/ | %48
[M:6/8] D2 z2 [Gg][Aa] | [Dd]2 z2 [G,G][A,A] | D2 z2 [Gg][Aa] | Pd'2 z2 .[Aa]/.[Aa]/.[Aa]/.[Aa]/ | %52
 dfa b>ag | a>gf g>fe | dgb c'>ba | b>ag a3 | dfa d'2 d' | d'>^c'b a3 | g2 g =fed | d3 z d/e/f/g/ | %60
 a4 z2 | z4 a/g/f/e/ | dfa b>ag | a>gf g>fe | dgb c'>ba | b>ag a3 | dfa d'2 d' | d'>^c'b a3 | %68
 g2 g =fed | dg/b/d' c'/b/a/g/=f/d/ | [Bdg].[GB]/.[GB]/[GB] [CA][B,G][A,=F] | %71
 [B,G].[GB]/.[GB]/[GB] [CA]/ z/ z/ [=F=f]3/2 | .[Gg]/ z/ .[GB]/.[GB]/[GB] [CA][B,G][A,=F] | %73
 [B,G].[GB]/.[GB]/[GB] [Aa][Bb][cc'] | [dd']3 [ee']2 [Bb] | [cc']4 [Bb][Gg] | %76
 [Aa]3 [Bb][cc'][dd'] | [Ee]4 =f/e/^d/e/ | [cc']2 [Bb] [Bb]2 [Ee] | [Bb]2 [Aa] [Aa][Bb][cc'] | %80
 [dd']2 [cc'] [Bb]2 [Gg] | ([Ad]/e).a(d/ e).[^ca][Bd] | ([A^c]/e).a(c/ e).ac | %83
 d/e/f/g/a/g/ a/ z/ d/^c/d/ z/ | aaa .[db]a/g/f/e/ | dG/B/d/g/ =f/e/d/c/B/A/ | %86
 d/ z/ G/B/d/c/ B/A/G/F/E/ z/ | [DF]F/G/A/A,/ D/^C/G/F/E/D/ | z/ z/ A/d/f/a/ g/f/e/d/^c/=c/ | %89
 B/d/g/b/d'/ z/ a/c/=f/a/c'/ z/ | b/c'/d'/ z/ g/a/ b/ z/ e/f/g/ !breath!z/ | A3 e2 d | G3 d2 c | %93
 =F3 [Ec]2 B | [EAe]2 [Ece]2 [=F_Ac=f]2- | [FAcf]6 | z3 [Aa][Bb][cc'] | [dd']3 [ee']2 [Bb] | %98
 [cc']3- [cc'][Bb][Gg] | [Aa]3 [Bb][cc'][dd'] | [Ee]3- [Ee]=f/e/^d/e/ | [cc']2 [Bb] [Bb]2 [Ee] | %102
 [Bb]2 [Aa] [Aa][Bb][cc'] | [dd']2 [cc'] [Bb]2 [Gg] | [Aa]6- | [Aa]6 | z6 | %107
 .[DF].[DF]/.[DF]/.[DF]/.[DF]/ [B,DG][A,F][G,E] | %108
 .[DF].[DF]/.[DF]/.[DF]/.[DF]/ [B,DG]/[B,DG]/ z/ [A,F]/ z/ [G,E]/ | %109
 .[DF].[DF]/.[DF]/.[DF]/.[DF]/ [B,DG][A,F][G,E] | %110
 .[DF].[DF]/.[DF]/.[DF]/.[DF]/ [B,DG]/[B,DG]/ z/ [A,F]/ z/ [G,E]/ | z6 | %112
 .[df].[df]/.[df]/.[df]/.[df]/ [eg]/[df]/[^ce]/[Bd]/[Ac]/[GB]/ | z6 | .D z z z3 |] %115
V:2
!f!!ped! A,,,[E,A,C][E,A,C][E,A,C] [E,A,C]!ped-up!!ped![D,F,A,D][D,F,A,D][D,F,A,D]!ped-up! | %1
!ped! [D,G,B,D][D,G,B,D][D,G,B,D][D,G,B,D]!ped-up!!ped! [E,G,CE][E,G,CE][E,G,CE][E,G,CE]!ped-up! | %2
!ped! [E,A,CE][E,A,CE][E,A,CE][E,A,CE]!ped-up!!ped! [E,A,CE][E,A,CE][E,A,CE][E,A,CE]!ped-up! | %3
!ped! [F,B,F]3 [E,G,E]!ped-up!!ped! !arpeggio![^D,F,B,^D]4- | [^D,F,B,^D]4!ped-up! z3 z | %5
 [E,G,].B,.B, z [D,F,].B,.B, z | [C,E,].B,.B, z [B,,D,].B,.B, z | [E,A,].C.C z [F,A,].D.D z | %8
 !tenuto!G,,.[G,B,].[F,A,].[E,G,] !tenuto![^D,F,].[E,G,].[F,A,].[G,B,] | %9
 [E,G,].B,.A,.B, [^D,F,].B,.A,.B, | [E,B,].G,.B, z [E,^G,].B,.G, z | [E,A,].C.C z [F,A,].D.D z | %12
 z B,,G,F,!ped! E,[B,,B,][G,,G,][F,,F,]!ped-up! | [E,G,].B,.E z [D,F,].B,.D z | %14
 [C,E,].G,.G, z [B,,D,].G,.D, z | [E,A,].C.C z [F,A,].D.D z | %16
 !tenuto!G,,.[G,B,].[F,A,].[E,G,] !tenuto![^D,F,].[E,G,].[F,A,].[G,B,] | %17
 [E,G,].B,.E z [^D,F,].B,.F, z | [E,G,].B,.G, z [E,B,]^G,.B, z | A,.C.C z F,.D.D z | %20
 z .B,, E,2 [E,G,][F,A,][G,B,][A,C] | [C,E,G,B,]8 | [B,,D,F,A,]6 z C,/D,/ | [A,,C,E,G,]8 | %24
 [G,,B,,D,F,]8 | [C,E,]4 [D,F,A,]4 | [B,,D,F,]4 [E,G,B,]4 | [C,E,G,B,]3 A,/B,/ E,3 D,/E,/ | %28
 [C,E,G,C]8 | !arpeggio![B,,^D,F,B,]6 z2 | [E,B,].E.G z [DF].[DF] z z | %31
 [C,G,].C.E z [B,D].[B,D] z z | [E,A,].C.E z [DF].[DF] z z | %33
 !tenuto!G,,.B,.G, z !tenuto![A,^D]!tenuto![A,D] z2 | [E,B,].E.G z [DF].[DF] z z | %35
 [C,G,].C.E z [B,D].[B,D] z z | .C,.E,.G,.B, .A,.F,.D,.B,, | [E,B,].E.G z [EG].[EG] z z | %38
 .[E,G,].[E,G,].[E,G,].[E,G,] .[F,A,].[F,A,] [F,C]/B,/A,/G,/ | %39
 .[D,F,].[D,F,].[D,F,].[D,F,] .[D,G,].[D,G,] [D,G,]/F,/E,/D,/ | %40
 .[C,E,].[C,E,].[C,E,].[C,E,] .[C,F,].[C,F,] [C,C]/B,/A,/G,/ | %41
 .[B,,F,].[B,,F,].[^C,F,].[^D,F,] .[E,G,].[G,B,] [E,B,]/A,/G,/F,/ | %42
 .[E,G,].[E,G,].[E,G,].[E,G,] .[C,E,G,].[C,E,G,] [E,C]/B,/A,/G,/ | %43
 .[D,F,].[D,F,].[D,F,].[D,F,] .[B,,D,G,].[B,,D,G,] [D,G,]/F,/E,/D,/ | %44
 .[C,E,].[C,E,].[C,E,].[C,E,] .[C,F,].[C,F,] [C,C]/B,/A,/G,/ | %45
 .[B,,F,].[B,,F,].[B,,F,].[B,,F,] .[E,G,].[E,G,] E,/F,/G,/B,/ | [E,^G,B,]3 [E,A,^C]3 [A,,^C,E,]2- | %47
 [A,,^C,E,]4 z [A,,A,]/[B,,B,]/ [A,,A,]/[G,,G,]/[F,,F,]/[E,,E,]/ | %48
[M:6/8] [D,,D,].[D,F,A,]/.[D,F,A,]/.[D,F,A,]/.[D,F,A,]/ [B,,D,G,][G,,E,][A,,F,] | %49
 D,,.[D,F,A,]/.[D,F,A,]/.[D,F,A,]/.[D,F,A,]/ [B,,D,G,][G,,E,][A,,F,] | %50
 D,,.[D,F,A,]/.[D,F,A,]/.[D,F,A,]/.[D,F,A,]/ [B,,D,G,][G,,E,][A,,F,] | %51
 D,,.[D,F,A,]/.[D,F,A,]/.[D,F,A,]/.[D,F,A,]/ [B,,D,G,][G,,E,][A,,F,] | %52
 D,,.[D,F,A,]/.[D,F,A,]/[D,F,A,] [B,,D,G,][A,,D,F,][A,,^C,E,] | %53
 D,,.[D,F,A,]/.[D,F,A,]/[D,F,A,] [B,,D,G,][A,,D,F,][A,,^C,E,] | %54
 G,,[D,G,B,][D,G,B,] [C,A,][A,,C,=F,][B,,G,] | G,,[D,G,B,][D,G,B,] [C,A,][A,,C,=F,][B,,G,] | %56
 D,,.[D,F,A,]/.[D,F,A,]/[D,F,A,] [B,,D,G,][A,,D,F,][A,,^C,E,] | %57
 D,,.[D,F,A,]/.[D,F,A,]/[D,F,A,] [B,,D,G,][A,,D,F,][A,,^C,E,] | %58
 G,,[D,G,B,][D,G,B,] [C,A,][A,,C,=F,][B,,G,] | %59
 G,,.[D,G,B,]/.[D,G,B,]/[D,G,B,] [C,A,]3/2[D,G,B,]3/2 | %60
 D,,.[D,F,A,]/.[D,F,A,]/.[D,F,A,]/.[D,F,A,]/ [B,,D,G,][G,,E,][A,,F,] | %61
 D,,.[D,F,A,]/.[D,F,A,]/.[D,F,A,]/.[D,F,A,]/ [B,,D,G,][G,,E,][A,,F,] | %62
 D,,.[D,F,A,]/.[D,F,A,]/[D,F,A,] [B,,D,G,][A,,D,F,][A,,^C,E,] | %63
 D,,.[D,F,A,]/.[D,F,A,]/[D,F,A,] [B,,D,G,][A,,D,F,][A,,^C,E,] | %64
 G,,[D,G,B,][D,G,B,] [C,A,][A,,C,=F,][B,,G,] | G,,[D,G,B,][D,G,B,] [C,A,][A,,C,=F,][B,,G,] | %66
 D,,.[D,F,A,]/.[D,F,A,]/[D,F,A,] [B,,D,G,][A,,D,F,][A,,^C,E,] | %67
 D,,.[D,F,A,]/.[D,F,A,]/[D,F,A,] [B,,D,G,][A,,D,F,][A,,^C,E,] | %68
 G,,[D,G,B,][D,G,B,] [C,A,][A,,C,=F,][B,,G,] | %69
 G,,.[D,G,B,]/.[D,G,B,]/.[G,B,]/.[G,B,]/ z [A,,D,=F,]2 | %70
 G,,.[D,G,B,]/.[D,G,B,]/[D,G,B,] [C,A,]3/2 z3/2 | G,,.[D,G,B,]/.[D,G,B,]/[D,G,B,] [C,A,]3/2 z3/2 | %72
 G,,.[D,G,B,]/.[D,G,B,]/[D,G,B,] [C,A,]3/2 z/ z | G,,.[D,G,B,]/.[D,G,B,]/[D,G,B,] [C,=F,A,]2 z | %74
 D,,=F,,A,, !arpeggio![G,,B,,D,]3 | C,,E,,B,, !arpeggio![A,,C,E,]3 | %76
 =F,,A,,C, !arpeggio![B,,D,G,]3 | C,,E,,B,, [A,,C,E,]3 | %78
 !arpeggio![^G,,B,,E,]3 !arpeggio![B,,E,^G,]3 | !arpeggio![A,,C,E,]3 !arpeggio![E,A,C]3 | %80
 !arpeggio![B,,D,G,]3 !arpeggio![D,G,B,]3 | [A,,E,A,]6- | [A,,^C,E,A,]6 | %83
 [D,F,].[D,F,]/.[D,F,]/[D,F,] .[B,,G,].[A,,F,].[G,,E,] | %84
 [D,F,].[D,F,]/.[D,F,]/[D,F,] .[B,,G,].[G,,E,].[A,,F,] | %85
 [G,B,].[G,B,]/.[G,B,]/[G,B,] .[E,C].[C,A,].[D,B,] | %86
 [G,B,].[G,B,]/.[G,B,]/[G,B,] B,/A,/G,/F,/E,/ z/ | %87
 [D,F,].[D,F,]/.[D,F,]/[D,F,] .[B,,G,].[A,,F,].[G,,E,] | %88
 [D,F,].[D,F,]/.[D,F,]/[D,F,] [B,,G,]/[B,,G,]/ z/ [A,,F,]/ z/ [G,,E,]/ | %89
 [G,B,].[G,B,]/.[G,B,]/[G,B,] [E,C]/[E,C]/ z/ [D,B,]/ z/ [C,A,]/ | %90
 [G,B,].[G,B,]/.[G,B,]/[G,B,] z !>!E/!>!E/!>!E/!>!E/ | [C,=F,]=F,,A,, [D,G,]G,,B,, | %92
 [B,,E,]E,,G,, [E,A,]A,,C, | [C,=F,]=F,,A,, !arpeggio![^G,,E,^G,]3 | %94
 [E,,A,,E,]2 [E,,C,E,]2"_tremolo" [=F,,_A,,C,=F,]2- | [F,,A,,C,F,]6 | z6 | %97
 D,,=F,,A,, !arpeggio![G,,B,,D,]3 | C,,E,,B,, !arpeggio![A,,C,E,]3 | %99
 =F,,A,,C, !arpeggio![B,,D,G,]3 | C,,E,,B,, [A,,C,E,]3 | %101
 !arpeggio![^G,,B,,E,]3 !arpeggio![B,,E,^G,]3 | !arpeggio![A,,C,E,]3 !arpeggio![E,A,C]3 | %103
 !arpeggio![B,,D,G,]3 !arpeggio![D,G,B,]3 | [D,A,D]3 z [^C,E,A,^C][B,,D,^G,B,] | [^C,E,A,^C]6 | %106
 z6 | z2 z z [G,,,G,,][A,,,A,,] | [D,,D,]2 z2 [G,,,G,,][A,,,A,,] | [D,,D,]2 z2 [G,,,G,,][A,,,A,,] | %110
 [D,,D,]2 z2 [G,,,G,,][A,,,A,,] | z6 | z6 | [F,A,]/[G,B,]/[F,A,]/[E,G,]/[D,F,]/[^C,E,]/ z z2 | %114
 .[F,A,] z z4 |] %115
V:3
 x8 | x8 | x8 | x8 | x8 | x8 | x8 | x8 | x8 | x8 | x8 | x8 | x8 | x8 | x8 | x8 | x8 | x8 | x8 | %19
 x8 | x8 | x8 | x8 | x8 | x8 | x8 | x8 | x8 | x8 | x8 | x8 | x8 | x8 | x8 | x8 | x8 | x8 | x8 | %38
 E4 x4 | x3 z4 x | x8 | x8 | x8 | x8 | x8 | x8 | x8 | x8 |[M:6/8] x6 | x6 | x6 | x6 | x6 | x6 | %54
 x6 | x6 | x6 | x6 | x6 | x6 | x6 | x6 | x6 | x6 | x6 | x6 | x6 | x6 | x6 | x6 | x6 | x6 | x6 | %73
 x6 | x6 | x6 | x6 | x6 | x6 | x6 | x6 | x6 | x6 | x6 | x6 | x6 | G2 x4 | x4 D/ x3/2 | x6 | x6 | %90
 x6 | x6 | x6 | x6 | x6 | x6 | x6 | x6 | x6 | x6 | x6 | x6 | x6 | x6 | x6 | x6 | x6 | x6 | x6 | %109
 x6 | x6 | x6 | x6 | x6 | x6 |] %115

